X:1
T:The Devil's Nine Questions
M:4/4
L:1/4
K:C
 D| G A B/2B/2 G| E G D3/2 G/2| B3/2 B/2 B A| B d z e| d B G B| G E D E/2G/2|\
 G3/2 G/2 E D| E2 G||
